packages/core/src/svgs/tokens/mono/PHB.svg

<svg width="24" height="24" viewBox="0 0 24 24" fill="none" xmlns="http://www.w3.org/2000/svg">
<path d="M11.9846 14.6244C12.0021 14.5894 12.0415 14.6094 12.0595 14.6244L12.4226 18.873L12.0221 19.25L11.6021 18.873C11.7221 17.4715 11.9671 14.659 11.9846 14.6244Z" fill="white"/>
<path d="M11.165 11.5249L11.5476 11.0498L12.0116 12.0348L12.483 11.0498L12.8656 11.5249L12.0116 13.3639L11.165 11.5249Z" fill="white"/>
<path d="M11.6084 10.5199L12.0184 10.0999L12.4349 10.5199L12.0179 11.2839L11.6084 10.5199Z" fill="white"/>
<path d="M4.19304 10.8443L3.82104 9.75732L11.3781 12.9363L11.8591 13.7763L11.2021 18.5223L10.6271 17.9894L11.5771 13.7763L4.19304 10.8443Z" fill="white"/>
<path d="M19.8073 10.8443L20.1797 9.75732L12.6226 12.9363L12.1416 13.7763L12.7987 18.5223L13.3736 17.9894L12.4231 13.7763L19.8073 10.8443Z" fill="white"/>
<path d="M9.95859 10.3141L2 4.75L2.79251 6.92152L10.4326 11.2051L9.95859 10.3141Z" fill="white"/>
<path d="M14.0414 10.3141L22 4.75L21.2075 6.92152L13.5674 11.2051L14.0414 10.3141Z" fill="white"/>
<path d="M3.61067 9.17931L3.01416 7.52686L10.6532 11.6289L11.1238 12.5034L3.61067 9.17931Z" fill="white"/>
<path d="M20.3893 9.17931L20.9858 7.52686L13.3467 11.6289L12.8762 12.5034L20.3893 9.17931Z" fill="white"/>
</svg>

<svg xmlns="http://www.w3.org/2000/svg" width="24" height="24" fill="none" viewBox="0 0 24 24">
    <path fill="#fff" d="M11.985 14.624c.017-.035.056-.015.075 0l.363 4.249-.4.377-.42-.377c.12-1.402.364-4.214.382-4.249m-.82-3.099.383-.475.464.985.471-.985.383.475-.854 1.839z"/>
    <path fill="#fff" d="m11.608 10.52.41-.42.417.42-.417.764zm-7.415.324-.372-1.087 7.557 3.18.481.84-.657 4.745-.575-.533.95-4.213zm15.614 0 .373-1.087-7.557 3.18-.481.84.657 4.745.575-.533-.95-4.213zm-9.848-.53L2 4.75l.793 2.172 7.64 4.283zm4.082 0L22 4.75l-.793 2.172-7.64 4.283zM3.61 9.18l-.596-1.653 7.64 4.102.47.874zm16.78 0 .596-1.653-7.64 4.102-.47.874z"/>
</svg>
